proprietary/assets/icons/geld-en-financien/vennootschapsbelasting.svg

<svg enable-background="new 0 0 64 64" viewBox="0 0 64 64" xmlns="http://www.w3.org/2000/svg"><path d="m0 0h64v64h-64z" fill="none"/><path d="m40.333 35.606c.514-.086 1.082-.156 1.667-.22v-24.886c0-.276-.224-.5-.5-.5h-27c-.276 0-.5.224-.5.5v40.5h12v-6h4v6h5c0-2.983.095-7.03.511-10h-2.511v-4h4v.459c.853-.955 2.009-1.632 3.333-1.853zm-17.333 5.394h-4v-4h4zm0-7h-4v-4h4zm0-7h-4v-4h4zm0-7h-4v-4h4zm7 21h-4v-4h4zm0-7h-4v-4h4zm0-7h-4v-4h4zm0-7h-4v-4h4zm3-4h4v4h-4zm0 7h4v4h-4zm0 11v-4h4v4z"/><path d="m55.794 51.93c-.847 0-1.025.976-1.025 1.795 0 1.633.508 1.853 1.005 1.853.706 0 1.063-.552 1.063-1.641.001-1.799-.595-2.007-1.043-2.007z"/><path d="m46.225 46.307c-.863 0-1.044.976-1.044 1.795 0 1.632.518 1.853 1.024 1.853.863 0 1.044-.892 1.044-1.641.001-1.799-.584-2.007-1.024-2.007z"/><path d="m63.435 40.826c-.195-1.173-1.087-2.065-2.261-2.261-3.391-.565-9.044-.565-10.174-.565s-6.783 0-10.174.565c-1.173.196-2.065 1.088-2.26 2.261-.566 3.391-.566 9.044-.566 10.174s0 6.783.565 10.174c.195 1.173 1.087 2.065 2.26 2.261 3.392.565 9.045.565 10.175.565s6.783 0 10.174-.565c1.174-.196 2.066-1.088 2.261-2.261.565-3.391.565-9.044.565-10.174 0-3.393 0-6.783-.565-10.174zm-20.576 7.449c0-2.896 1.844-3.924 3.423-3.924 2.09 0 3.289 1.374 3.289 3.77 0 2.617-1.785 3.809-3.443 3.809-1.491 0-3.269-.634-3.269-3.655zm6.434 9.727-1.839-.727 5.232-13.277 1.839.727zm6.405-.449c-1.491 0-3.269-.634-3.269-3.655 0-2.896 1.844-3.924 3.423-3.924 2.09 0 3.289 1.374 3.289 3.77 0 2.631-1.729 3.809-3.443 3.809z"/></svg>

<?xml version="1.0" encoding="utf-8"?>
<!-- Generator: Adobe Illustrator 25.2.0, SVG Export Plug-In . SVG Version: 6.00 Build 0)  -->
<svg version="1.1" xmlns="http://www.w3.org/2000/svg" xmlns:xlink="http://www.w3.org/1999/xlink" x="0px" y="0px"
	 viewBox="0 0 64 64" style="enable-background:new 0 0 64 64;" xml:space="preserve">
<style type="text/css">
	.st0{fill:none;}
	.st1{fill:#FFFFFF;}
	.st2{fill:#B3B3B3;}
</style>
<g id="Box">
	<rect class="st0" width="64" height="64"/>
</g>
<g id="Icon">
	<g>
		<path d="M40.333,35.606c0.514-0.086,1.082-0.156,1.667-0.22V10.5c0-0.276-0.224-0.5-0.5-0.5h-27c-0.276,0-0.5,0.224-0.5,0.5V51h12
			v-6h4v6h5c0-2.983,0.095-7.03,0.511-10H33v-4h4v0.459C37.853,36.504,39.009,35.827,40.333,35.606z M23,41h-4v-4h4V41z M23,34h-4
			v-4h4V34z M23,27h-4v-4h4V27z M23,20h-4v-4h4V20z M30,41h-4v-4h4V41z M30,34h-4v-4h4V34z M30,27h-4v-4h4V27z M30,20h-4v-4h4V20z
			 M33,16h4v4h-4V16z M33,23h4v4h-4V23z M33,34v-4h4v4H33z"/>
		<path d="M55.794,51.93c-0.847,0-1.025,0.976-1.025,1.795c0,1.633,0.508,1.853,1.005,1.853c0.706,0,1.063-0.552,1.063-1.641
			C56.838,52.138,56.242,51.93,55.794,51.93z"/>
		<path d="M46.225,46.307c-0.863,0-1.044,0.976-1.044,1.795c0,1.632,0.518,1.853,1.024,1.853c0.863,0,1.044-0.892,1.044-1.641
			C47.25,46.515,46.665,46.307,46.225,46.307z"/>
		<path d="M63.435,40.826c-0.195-1.173-1.087-2.065-2.261-2.261C57.783,38,52.13,38,51,38c-1.13,0-6.783,0-10.174,0.565
			c-1.173,0.196-2.065,1.088-2.26,2.261C38,44.217,38,49.87,38,51c0,1.13,0,6.783,0.565,10.174c0.195,1.173,1.087,2.065,2.26,2.261
			C44.217,64,49.87,64,51,64s6.783,0,10.174-0.565c1.174-0.196,2.066-1.088,2.261-2.261C64,57.783,64,52.13,64,51
			C64,47.607,64,44.217,63.435,40.826z M42.859,48.275c0-2.896,1.844-3.924,3.423-3.924c2.09,0,3.289,1.374,3.289,3.77
			c0,2.617-1.785,3.809-3.443,3.809C44.637,51.93,42.859,51.296,42.859,48.275z M49.293,58.002l-1.839-0.727l5.232-13.277
			l1.839,0.727L49.293,58.002z M55.698,57.553c-1.491,0-3.269-0.634-3.269-3.655c0-2.896,1.844-3.924,3.423-3.924
			c2.09,0,3.289,1.374,3.289,3.77C59.141,56.375,57.412,57.553,55.698,57.553z"/>
	</g>
</g>
</svg>
